img/raw/icons/Twitter.svg

<?xml version="1.0" encoding="UTF-8"?>
<svg xmlns="http://www.w3.org/2000/svg" xmlns:xlink="http://www.w3.org/1999/xlink" width="500pt" height="500pt" viewBox="0 0 500 500" version="1.1">
<g id="surface1">
<path style=" stroke:none;fill-rule:nonzero;fill:#5B5B5B;fill-opacity:1;" d="M 250 20 C 123.171875 20 20 123.171875 20 250 C 20 376.828125 123.171875 480 250 480 C 376.828125 480 480 376.828125 480 250 C 480 123.171875 376.828125 20 250 20 Z M 362.371094 205.238281 C 362.46875 207.601563 362.53125 210 362.53125 212.410156 C 362.53125 285.589844 306.800781 370 204.910156 370 C 173.628906 370 144.5 360.828125 120 345.109375 C 124.328125 345.628906 128.71875 345.878906 133.210938 345.878906 C 159.171875 345.878906 183.058594 337.039063 202 322.179688 C 177.761719 321.738281 157.320313 305.691406 150.25 283.710938 C 153.640625 284.359375 157.109375 284.710938 160.691406 284.710938 C 165.738281 284.710938 170.640625 284.039063 175.269531 282.761719 C 149.949219 277.648438 130.859375 255.289063 130.859375 228.441406 C 130.859375 228.199219 130.859375 227.96875 130.859375 227.738281 C 138.328125 231.890625 146.859375 234.390625 155.949219 234.679688 C 141.070313 224.730469 131.308594 207.789063 131.308594 188.570313 C 131.308594 178.421875 134.03125 168.910156 138.800781 160.710938 C 166.128906 194.21875 206.949219 216.269531 252.980469 218.589844 C 252.03125 214.53125 251.53125 210.308594 251.53125 205.96875 C 251.53125 175.378906 276.328125 150.578125 306.929688 150.578125 C 322.859375 150.578125 337.25 157.300781 347.351563 168.070313 C 359.960938 165.589844 371.828125 160.980469 382.53125 154.640625 C 378.398438 167.558594 369.609375 178.421875 358.160156 185.28125 C 369.378906 183.921875 380.039063 180.960938 389.988281 176.550781 C 382.570313 187.660156 373.179688 197.429688 362.371094 205.238281 Z "/>
</g>
</svg>

<?xml version="1.0" encoding="utf-8"?>
<!-- Generator: Adobe Illustrator 23.0.2, SVG Export Plug-In . SVG Version: 6.00 Build 0)  -->
<svg version="1.1" id="Layer_1" xmlns="http://www.w3.org/2000/svg" xmlns:xlink="http://www.w3.org/1999/xlink" x="0px" y="0px"
	 viewBox="0 0 500 500" style="enable-background:new 0 0 500 500;" xml:space="preserve">
<style type="text/css">
	.st0{fill:#1DA1F2;}
</style>
<g id="surface1">
	<path class="st0" d="M250,20C123.2,20,20,123.2,20,250s103.2,230,230,230s230-103.2,230-230S376.8,20,250,20z M362.4,205.2
		c0.1,2.4,0.2,4.8,0.2,7.2c0,73.2-55.7,157.6-157.6,157.6c-31.3,0-60.4-9.2-84.9-24.9c4.3,0.5,8.7,0.8,13.2,0.8
		c26,0,49.8-8.8,68.8-23.7c-24.2-0.4-44.7-16.5-51.8-38.5c3.4,0.6,6.9,1,10.4,1c5,0,9.9-0.7,14.6-1.9c-25.3-5.1-44.4-27.5-44.4-54.3
		c0-0.2,0-0.5,0-0.7c7.5,4.2,16,6.7,25.1,6.9c-14.9-9.9-24.6-26.9-24.6-46.1c0-10.1,2.7-19.7,7.5-27.9
		c27.3,33.5,68.1,55.6,114.2,57.9c-0.9-4.1-1.4-8.3-1.4-12.6c0-30.6,24.8-55.4,55.4-55.4c15.9,0,30.3,6.7,40.4,17.5
		c12.6-2.5,24.5-7.1,35.2-13.4c-4.1,12.9-12.9,23.8-24.4,30.6c11.2-1.4,21.9-4.3,31.8-8.7C382.6,187.7,373.2,197.4,362.4,205.2z"/>
</g>
</svg>
